src/assets/humanIdj.svg

<svg width="24" height="43" viewBox="0 0 24 43" fill="none" xmlns="http://www.w3.org/2000/svg">
<g clip-path="url(#clip0_1424_9034)">
<path d="M19.5434 19.0214C19.4617 19.102 19.339 18.9811 19.0937 18.9408C18.8893 18.9005 18.5622 18.8199 18.5622 18.9005C18.4804 19.0617 19.8296 19.7871 19.707 20.0692C19.707 20.1095 19.6252 20.1498 19.5843 20.1498C19.3799 20.1901 19.2164 19.9483 18.8075 19.6662C18.5213 19.4647 18.276 19.3438 18.2351 19.3841C18.1942 19.4244 18.8075 20.1095 19.0119 20.4319C19.0528 20.4722 19.0937 20.5528 19.0528 20.6334C19.0119 20.6737 18.9302 20.714 18.9302 20.714C18.644 20.7543 17.908 19.7065 17.7854 19.7468C17.7036 19.7871 18.1533 20.6737 17.9489 20.7946C17.908 20.8349 17.8671 20.7946 17.8262 20.7946C17.4992 20.714 17.4583 19.8677 17.4174 19.8677C17.3765 19.8677 17.4583 20.6334 17.2538 20.6737C17.213 20.6737 17.1721 20.6737 17.1721 20.6737C17.0494 20.6334 17.0494 20.4319 17.0085 19.9483C16.9268 19.102 17.0085 18.9408 16.845 18.6184C16.6814 18.296 12.3884 12.2913 12.4293 12.0898C12.4702 11.848 13.0426 11.7271 13.3288 11.6465C13.5332 11.7674 17.6218 17.893 17.9898 18.0542C18.1124 18.1348 18.276 18.2154 18.4804 18.296C19.1755 18.6184 19.5026 18.6587 19.5434 18.8602C19.5843 18.9408 19.5843 19.0214 19.5434 19.0214Z" fill="#9B7045"/>
<path d="M1.22658 39.6953C1.59455 39.9774 2.12606 39.9371 2.41227 39.5744L8.74957 32.2399C8.83135 32.1593 8.87223 32.0787 8.91312 31.9578L11.3254 25.0262C11.4889 24.5426 11.2027 24.059 10.7121 23.9381L9.56729 23.656C9.11755 23.5754 8.6678 23.8172 8.54514 24.2605L6.66439 31.4339C6.62351 31.5548 6.58262 31.6354 6.50085 31.7563L1.06303 38.5266C0.776831 38.849 0.858602 39.3729 1.22658 39.6953Z" fill="#9B7045"/>
<path d="M19.707 41.3077C20.1158 41.1465 20.3611 40.7435 20.2385 40.3002L15.8228 24.543C15.741 24.1803 15.4139 23.9385 15.0051 23.9385H13.4923C12.879 23.9385 12.4702 24.543 12.7155 25.1072L16.2317 32.7239C16.2317 32.7642 16.2725 32.8045 16.2725 32.8448L18.603 40.7838C18.7666 41.2271 19.2572 41.4689 19.707 41.3077Z" fill="#9B7045"/>
<path d="M18.644 42.3149C18.7257 42.5567 18.971 42.6373 19.1755 42.597C20.2385 42.3955 23.7138 41.6298 23.9182 41.0253C24 40.7835 23.9182 40.6626 23.9182 40.6626C23.7956 40.4611 23.4276 40.4611 23.3458 40.4611L20.4429 40.1387C20.3612 40.1387 20.3203 40.179 20.2794 40.2193C20.1567 40.4208 19.8705 40.8238 19.339 41.0253C18.9302 41.1462 18.6031 41.1059 18.3578 41.0656C18.276 41.0253 18.1533 41.1462 18.1942 41.2268L18.644 42.3149Z" fill="black"/>
<path d="M12.4702 25.7922C12.6746 23.8981 13.615 18.1352 13.6968 17.0068C12.2658 17.0068 10.8757 17.0068 9.44465 17.0068C9.19933 18.9412 8.46339 23.0921 8.17719 25.0668" fill="#1B1B5B"/>
<path d="M5.76494 21.2384C5.68316 21.2384 5.64228 21.0369 5.56051 20.8354C5.47874 20.6742 5.31519 20.3518 5.23342 20.3921C5.06988 20.4324 5.39696 21.9235 5.11076 22.0041C5.06988 22.0041 4.9881 22.0041 4.9881 21.9638C4.82456 21.8429 4.90633 21.5608 4.86545 21.0772C4.82456 20.7548 4.74279 20.4727 4.7019 20.4727C4.62013 20.4727 4.53836 21.3593 4.4157 21.722C4.4157 21.7623 4.37482 21.8429 4.29305 21.8832C4.25216 21.8832 4.17039 21.8429 4.17039 21.8429C3.92507 21.6414 4.25216 20.3921 4.1295 20.3518C4.04773 20.3115 3.67976 21.1981 3.43444 21.1578C3.39356 21.1578 3.35267 21.0772 3.35267 21.0772C3.18913 20.7951 3.8433 20.1906 3.80241 20.1503C3.76153 20.11 3.23001 20.6742 3.06647 20.5533C3.02558 20.5533 3.02558 20.513 3.02558 20.4727C2.9847 20.3518 3.14824 20.2309 3.47533 19.8682C4.04773 19.2637 4.25216 19.2234 4.37482 18.8607C4.53836 18.498 4.21127 13.7426 4.37482 13.662C4.4157 13.6217 7.64569 9.91413 7.76834 9.95443C7.97277 10.035 9.60821 10.0753 9.85352 10.2365C10.0171 10.3171 5.72405 14.2665 5.76494 14.3068C5.80582 14.5083 5.43785 19.0219 5.51962 19.4249C5.56051 19.5861 5.60139 19.7473 5.68316 19.9488C5.88759 20.6742 6.09202 20.9563 5.96937 21.1175C5.88759 21.1981 5.84671 21.2384 5.76494 21.2384Z" fill="#9B7045"/>
<path d="M15.1687 3.34456C15.1687 3.30426 15.1278 3.26396 15.1278 3.26396C15.0869 1.89376 14.1874 0.805664 13.0426 0.805664C11.8978 0.805664 10.9574 1.97436 10.9574 3.42516C10.9574 3.90876 11.0392 4.35206 11.2436 4.71476H10.8348V7.05215H13.0835V6.04465C14.0239 6.04465 14.8007 5.27895 15.0869 4.19086C15.3731 4.23116 15.414 4.15056 15.4549 4.11026C15.4958 4.06996 15.4958 3.98936 15.1687 3.34456Z" fill="#9B7045"/>
<path d="M11.5298 6.32715C13.1653 6.32715 14.4736 7.61675 14.4736 9.22874V16.6036C14.4736 18.2156 13.1653 19.5052 11.5298 19.5052C9.89441 19.5052 8.58606 18.2156 8.58606 16.6036V9.22874C8.58606 7.61675 9.89441 6.32715 11.5298 6.32715Z" fill="#E0C141"/>
<path d="M8.6269 16.8857H14.5145L16.6405 24.5427L11.7751 26.2353C11.5707 25.5502 11.0801 23.8576 10.7121 23.2128L9.32196 21.1172C8.83133 20.15 8.54513 19.1022 8.58602 18.0141C8.6269 17.4096 8.6269 16.8857 8.6269 16.8857Z" fill="#333399"/>
<path d="M0.0817728 39.212C-0.0817707 39.3732 -0.0408848 39.6553 0.122659 39.8165C0.858604 40.5822 3.35264 43.1211 3.96593 43.0002C4.21125 42.9599 4.29302 42.7987 4.29302 42.7987C4.41567 42.5972 4.21125 42.2748 4.17036 42.2345L2.94378 39.6553C2.94378 39.5344 2.86201 39.4941 2.78024 39.4941C2.53492 39.4941 2.04429 39.4941 1.59455 39.1314C1.26746 38.8896 1.10392 38.5672 1.06303 38.3254C1.02215 38.2448 0.89949 38.2045 0.817718 38.2851L0.0817728 39.212Z" fill="black"/>
<path d="M8.21805 12.5732L10.5485 9.83277L9.19931 7.45508L6.41907 10.8403L8.21805 12.5732Z" fill="#E0C141"/>
<path d="M12.6746 3.38519C12.7972 3.18369 12.9608 2.90159 12.9199 2.53889C12.879 2.2165 12.7155 2.0956 12.7972 1.9747C12.9608 1.6926 13.9829 2.41799 14.7189 2.0553C15.2504 1.8135 15.5366 1.1284 15.3731 0.846298C15.2504 0.644798 15.0051 0.805998 14.3509 0.604499C13.6967 0.402999 13.6967 0.2015 13.1243 0.0805998C12.6746 -0.0402999 12.2657 0 12.0613 0.0402999C11.8978 0.0402999 11.2436 0.1209 10.7121 0.483599C9.68992 1.209 9.32195 2.94189 9.93523 3.62699C10.1805 3.90909 10.5894 3.98969 10.6303 4.39269C10.6712 4.71509 10.4259 4.87629 10.5485 5.03749C10.6712 5.19869 11.08 5.15839 11.3662 4.99719C11.816 4.75539 11.9795 4.27179 12.0204 4.15089C11.5707 3.98969 11.3662 3.58669 11.448 3.26429C11.4889 3.02249 11.7342 2.86129 11.9795 2.82099C12.2657 2.78069 12.5928 3.02249 12.6746 3.38519Z" fill="#110905"/>
<path d="M14.1056 2.86159C14.0648 2.86159 14.0239 2.94219 14.0239 2.98249C14.0239 3.02279 14.0239 3.02279 14.0239 3.06309V3.10339C14.0239 3.14369 14.0239 3.14369 14.0239 3.18399V3.22429V3.26459C14.0239 3.26459 14.0239 3.30489 14.0648 3.30489C14.0648 3.30489 14.1056 3.30489 14.1056 3.34519C14.1056 3.34519 14.1056 3.34519 14.1465 3.34519H14.1874C14.1874 3.34519 14.1874 3.34519 14.2283 3.30489C14.2692 3.26459 14.2283 3.30489 14.2283 3.26459C14.2283 3.26459 14.2283 3.26459 14.2283 3.22429C14.2283 3.18399 14.2283 3.18399 14.2283 3.14369V3.10339C14.2283 3.06309 14.2283 2.98249 14.1874 2.94219C14.1874 2.90189 14.1465 2.86159 14.1056 2.82129C14.1465 2.82129 14.1465 2.82129 14.1056 2.86159C14.1056 2.82129 14.1056 2.82129 14.1056 2.86159Z" fill="black"/>
<path d="M14.1056 4.63496C14.0238 4.67526 14.0647 4.87676 14.1056 4.99766C14.1874 5.19916 14.3509 5.32006 14.4327 5.36036C14.5145 5.27976 14.5554 5.19916 14.6371 5.11856C14.678 5.03796 14.7598 4.95736 14.7598 4.87676C14.678 4.87676 14.5554 4.83646 14.4327 4.79616C14.2283 4.71556 14.1465 4.59466 14.1056 4.63496Z" fill="white"/>
<path opacity="0.48" d="M13.5332 4.51355C13.7816 4.51355 13.983 4.31508 13.983 4.07025C13.983 3.82542 13.7816 3.62695 13.5332 3.62695C13.2849 3.62695 13.0835 3.82542 13.0835 4.07025C13.0835 4.31508 13.2849 4.51355 13.5332 4.51355Z" fill="#E5618A"/>
<path d="M10.9166 9.87305L8.58606 12.1701V12.4522L10.9166 9.87305Z" fill="#BCBBBB"/>
<path d="M14.5145 11.7678L11.7342 16.8859L11.6934 13.8231L14.3101 8.26172L14.3918 8.46322L14.4327 8.74532L14.4736 8.94682L14.5145 10.3573V11.7678Z" fill="#E0C141"/>
<path d="M11.7342 16.8853H11.6525L11.6934 10.3164L11.7342 16.8853Z" fill="#BCBBBB"/>
</g>
<defs>
<clipPath id="clip0_1424_9034">
<rect width="24" height="43" fill="white"/>
</clipPath>
</defs>
</svg>

<?xml version="1.0" encoding="UTF-8"?><svg id="b" xmlns="http://www.w3.org/2000/svg" xmlns:xlink="http://www.w3.org/1999/xlink" viewBox="0 0 24 43"><defs><clipPath id="e"><rect width="24" height="43" fill="none"/></clipPath></defs><g id="c"><g id="d"><g clip-path="url(#e)" fill="none"><path d="m19.54,19.02c-.08.08-.2-.04-.45-.08-.2-.04-.53-.12-.53-.04-.08.16,1.27.89,1.14,1.17,0,.04-.08.08-.12.08-.2.04-.37-.2-.78-.48-.29-.2-.53-.32-.57-.28s.57.73.78,1.05c.04.04.08.12.04.2-.04.04-.12.08-.12.08-.29.04-1.02-1.01-1.14-.97-.08.04.37.93.16,1.05-.04.04-.08,0-.12,0-.33-.08-.37-.93-.41-.93s.04.77-.16.81h-.08c-.12-.04-.12-.24-.16-.73-.08-.85,0-1.01-.16-1.33-.16-.32-4.46-6.33-4.42-6.53.04-.24.61-.36.9-.44.2.12,4.29,6.25,4.66,6.41.12.08.29.16.49.24.7.32,1.02.36,1.06.56.04.08.04.16,0,.16Z" fill="#9b7045"/><path d="m1.23,39.7c.37.28.9.24,1.19-.12l6.34-7.33c.08-.08.12-.16.16-.28l2.41-6.93c.16-.48-.12-.97-.61-1.09l-1.14-.28c-.45-.08-.9.16-1.02.6l-1.88,7.17c-.04.12-.08.2-.16.32l-5.44,6.77c-.29.32-.2.85.16,1.17Z" fill="#9b7045"/><path d="m19.71,41.31c.41-.16.65-.56.53-1.01l-4.42-15.76c-.08-.36-.41-.6-.82-.6h-1.51c-.61,0-1.02.6-.78,1.17l3.52,7.62s.04.08.04.12l2.33,7.94c.16.44.65.69,1.1.52Z" fill="#9b7045"/><path d="m18.64,42.31c.08.24.33.32.53.28,1.06-.2,4.54-.97,4.74-1.57.08-.24,0-.36,0-.36-.12-.2-.49-.2-.57-.2l-2.9-.32c-.08,0-.12.04-.16.08-.12.2-.41.6-.94.81-.41.12-.74.08-.98.04-.08-.04-.2.08-.16.16l.45,1.09Z"/><path d="m12.47,25.79c.2-1.89,1.14-7.66,1.23-8.79h-4.25c-.25,1.93-.98,6.09-1.27,8.06" fill="#1b1b5b"/><path d="m5.76,21.24c-.08,0-.12-.2-.2-.4-.08-.16-.25-.48-.33-.44-.16.04.16,1.53-.12,1.61-.04,0-.12,0-.12-.04-.16-.12-.08-.4-.12-.89-.04-.32-.12-.6-.16-.6-.08,0-.16.89-.29,1.25,0,.04-.04.12-.12.16-.04,0-.12-.04-.12-.04-.25-.2.08-1.45-.04-1.49-.08-.04-.45.85-.7.81-.04,0-.08-.08-.08-.08-.16-.28.49-.89.45-.93-.04-.04-.57.52-.74.4-.04,0-.04-.04-.04-.08-.04-.12.12-.24.45-.6.57-.6.78-.64.9-1.01.16-.36-.16-5.12,0-5.2.04-.04,3.27-3.75,3.39-3.71.2.08,1.84.12,2.09.28.16.08-4.13,4.03-4.09,4.07.04.2-.33,4.72-.25,5.12.04.16.08.32.16.52.2.73.41,1.01.29,1.17-.08.08-.12.12-.2.12Z" fill="#9b7045"/><path d="m15.17,3.34s-.04-.08-.04-.08c-.04-1.37-.94-2.46-2.09-2.46s-2.09,1.17-2.09,2.62c0,.48.08.93.29,1.29h-.41v2.34h2.25v-1.01c.94,0,1.72-.77,2-1.85.29.04.33-.04.37-.08s.04-.12-.29-.77Z" fill="#9b7045"/><path d="m11.53,6.33c1.64,0,2.94,1.29,2.94,2.9v7.37c0,1.61-1.31,2.9-2.94,2.9s-2.94-1.29-2.94-2.9v-7.37c0-1.61,1.31-2.9,2.94-2.9Z" fill="#e0c141"/><path d="m8.63,16.89h5.89l2.13,7.66-4.87,1.69c-.2-.69-.69-2.38-1.06-3.02l-1.39-2.1c-.49-.97-.78-2.02-.74-3.1.04-.6.04-1.13.04-1.13Z" fill="#339"/><path d="m.08,39.21c-.16.16-.12.44.04.6.74.77,3.23,3.3,3.84,3.18.25-.04.33-.2.33-.2.12-.2-.08-.52-.12-.56l-1.23-2.58c0-.12-.08-.16-.16-.16-.25,0-.74,0-1.19-.36-.33-.24-.49-.56-.53-.81-.04-.08-.16-.12-.25-.04l-.74.93Z"/><path d="m8.22,12.57l2.33-2.74-1.35-2.38-2.78,3.39,1.8,1.73Z" fill="#e0c141"/><path d="m12.67,3.39c.12-.2.29-.48.25-.85-.04-.32-.2-.44-.12-.56.16-.28,1.19.44,1.92.08.53-.24.82-.93.65-1.21-.12-.2-.37-.04-1.02-.24-.65-.2-.65-.4-1.23-.52-.45-.12-.86-.08-1.06-.04-.16,0-.82.08-1.35.44-1.02.73-1.39,2.46-.78,3.14.25.28.65.36.7.77.04.32-.2.48-.08.64.12.16.53.12.82-.04.45-.24.61-.73.65-.85-.45-.16-.65-.56-.57-.89.04-.24.29-.4.53-.44.29-.04.61.2.7.56Z" fill="#110905"/><path d="m14.11,2.86s-.08.08-.08.12v.28s0,.04.04.04c0,0,.04,0,.04.04h.08l.04-.04s0,0,0-.04v-.16s0-.12-.04-.16c0-.04-.04-.08-.08-.12t0,.04s0-.04,0,0Z"/><path d="m14.11,4.63c-.08.04-.04.24,0,.36.08.2.25.32.33.36.08-.08.12-.16.2-.24.04-.08.12-.16.12-.24-.08,0-.2-.04-.33-.08-.2-.08-.29-.2-.33-.16Z" fill="#fff"/><path d="m13.53,4.51c.25,0,.45-.2.45-.44s-.2-.44-.45-.44-.45.2-.45.44.2.44.45.44Z" fill="#e5618a" isolation="isolate" opacity=".48"/><path d="m10.92,9.87l-2.33,2.3v.28l2.33-2.58Z" fill="#bcbbbb"/><path d="m14.51,11.77l-2.78,5.12-.04-3.06,2.62-5.56.08.2.04.28.04.2.04,1.41v1.41Z" fill="#e0c141"/><path d="m11.73,16.89h-.08l.04-6.57.04,6.57Z" fill="#bcbbbb"/></g></g></g></svg>
